X:1
T:Paddy Ryan's Dream
R:reel
H:Same as the Scottish tune "Miss Lyall"
Z:id:hn-reel-143
M:C|
K:Ador
cB|AE~E2 cEAE|DEDC B,CDB,|A,B,CD EGAB|cAAG ABcB|
   AE~E2 cEAE|DEDC B,CDB,|A,B,CD EGAB|cABG A2:|
cB|Aaa^g aecA|Gggf gdBG|A2a^g aefd|edcB (3cBA BG|
   Aaa^g aecA|Gggf gdBG|Ac (3Bcd cedf|1 edcB A2:|2 edcB AB|]
